src/assets/image/block11/employee-decor3.svg

<svg width="26" height="26" viewBox="0 0 26 26" fill="none" xmlns="http://www.w3.org/2000/svg">
<path d="M17.7459 0.299644L25.6796 8.23215C25.7614 8.31376 25.8189 8.41644 25.8458 8.52877C25.8727 8.64111 25.868 8.75871 25.8321 8.86852C25.7963 8.97833 25.7307 9.07605 25.6426 9.15083C25.5546 9.22561 25.4475 9.27453 25.3334 9.29215L23.4909 9.57965L16.4209 2.50964L16.6859 0.653394C16.7023 0.538608 16.7504 0.430668 16.8247 0.341648C16.8991 0.252629 16.9967 0.18604 17.1067 0.14933C17.2167 0.112621 17.3347 0.107238 17.4476 0.133784C17.5605 0.16033 17.6637 0.217758 17.7459 0.299644V0.299644ZM2.74461 24.1871C7.39711 20.0234 12.7384 18.7771 18.5484 17.2871L19.1059 12.2646L13.7346 6.8934L8.71211 7.4509C7.22211 13.2609 5.97586 18.6009 1.81211 23.2546L0.0683594 21.5121C3.60336 17.3871 4.93086 12.8209 6.69711 5.16089L14.6521 4.27715L21.7234 11.3484L20.8396 19.3034C13.1796 21.0709 8.61211 22.3971 4.48836 25.9321L2.74461 24.1871ZM9.34961 16.6496C9.11083 16.419 8.92038 16.1432 8.78936 15.8382C8.65833 15.5331 8.58937 15.2051 8.58648 14.8731C8.5836 14.5412 8.64685 14.212 8.77255 13.9048C8.89826 13.5975 9.08389 13.3184 9.31862 13.0837C9.55335 12.8489 9.83248 12.6633 10.1397 12.5376C10.447 12.4119 10.7762 12.3486 11.1081 12.3515C11.4401 12.3544 11.7681 12.4234 12.0731 12.5544C12.3781 12.6854 12.654 12.8759 12.8846 13.1146C13.3337 13.5872 13.5805 14.2166 13.5723 14.8685C13.564 15.5204 13.3015 16.1433 12.8405 16.6044C12.3796 17.0654 11.7568 17.3282 11.1049 17.3367C10.453 17.3451 9.82359 17.0986 9.35086 16.6496H9.34961Z" fill="#696FE6"/>
</svg>

<svg width="26" height="26" fill="none" xmlns="http://www.w3.org/2000/svg"><path d="m17.746.3 7.934 7.932a.624.624 0 0 1-.347 1.06l-1.842.288-7.07-7.07.265-1.857A.624.624 0 0 1 17.746.3ZM2.745 24.187c4.652-4.164 9.993-5.41 15.803-6.9l.558-5.022-5.371-5.372-5.023.558c-1.49 5.81-2.736 11.15-6.9 15.804L.068 21.512c3.535-4.125 4.863-8.691 6.63-16.351l7.954-.884 7.071 7.071-.883 7.955c-7.66 1.768-12.228 3.094-16.352 6.63l-1.743-1.746ZM9.35 16.65a2.5 2.5 0 1 1 3.535-3.535A2.5 2.5 0 0 1 9.35 16.65H9.35Z" fill="#696FE6"/></svg>
